X:1
T:O Jesu cordis mei
T:Paolo Agostini (c. 1583-1629)
T:O Jesu cordis mei
T:(C) Wim Looyestijn - 2018. May be freely copied for non-commercial use.
T:(C) Wim Looyestijn - 2018. May be freely copied for non-commercial use.
T:(C) Wim Looyestijn - 2018. May be freely copied for non-commercial use.
T:(C) Wim Looyestijn - 2018. May be freely copied for non-commercial use.
C:Paolo Agostini
C:(c. 1583-1629)
Z:(C) Wim Looyestijn - 2018. May be freely copied for non-commercial use.
%%score [ 1 2 3 4 ]
L:1/8
Q:1/4=120
M:4/4
K:F
V:1 treble nm="Canto" snm="C"
V:2 alto2 nm="Alto" snm="A"
V:3 alto nm="Tenore" snm="T"
V:4 tenor nm="Basso" snm="B"
V:1
 x8 | z8 | x16 |[K:C][M:4/4] z4 A4 | F8 | E8 | z8 | z4 z2 AB | c4 B2 B2 | c2 BA G3 G | A8 | %11
w: |||O|Je-|su||cor- dis|me- i, the-|sau- * * * *|rus,|
 z4 A4- | A4 G2 FG | E4 E4 | z2 FG A4 | G4 z2 Bc | d2 c4 _B2 | A6 A2 | ^F4 z2 =F2 | G3 G G4 | %20
w: o|* Je- su, o|Je- su,|cor- dis me-|i, cor- dis|me- i, the-|sau- *|rus, et|u- ni- cum|
 z2 e3 d cB | A2 G2 E4 | z4 G4- | G2 ^F2 G4 | G4 G3 G | F4 ^F4 | z4 A4- | A2 GF A3 A | A4 B4- | %29
w: gau- * * *|* di- um,|lu-|* men ve-|rum, lu- men|ve- rum|et|* in- de- fi- ci-|ens, et|
 B2 AG A4- | A4 ^G4 | A8 | z2 E4 D2 | E4 E4 | F6 ED | E6 E2 |[M:3/1] ^F16 F8 | G12 G4 ^F8 | %38
w: * in- de- fi-|* ci-|ens,|lu- men|ve- rum,|et in- de-|fi- ci-|ens, in-|e- bri- a|
 G16 G8 | A12 G4 G8 |[M:4/4] ^F8 | z8 | G6 G2 | D8 | E8 | E8 | z2 E2 G2 A2- | AA G2 G2 G2 | %48
w: nos, in-|e- bri- a|nos||san- gui-|ne|tu-|o,|et glo- ri-|* fi- ca nos, et|
 A2 c3 c A2 | B4 z2 B2 | c3 B A2 d2- | dc BA GA/B/ c2- | cB AG F2 F2 | E4 E4- | E4 z2 e2 | %55
w: glo- ri- fi- ca|nos in|cor- po- re san-||* * * * * cto|tu- o,|* et|
 d2 c3 c A2 | B4 z2 c2 | A2 A3 A G2 | G8 | z2 A2 d3 c | B2 e3 d cB | A2 F2 E4 | ^F8 | z8 | %64
w: glo- ri- fi- ca|nos, et|glo- ri- fi- ca|nos|in cor- po-|re san- * * *|* cto tu-|o,||
 z2 A2 d3 c | B2 e3 d cB | AB/c/ d3 c BA | ^GG A4 G2 | A16 |] %69
w: in cor- po-|re san- * * *||* cto tu- *|o.|
V:2
 x8 | z8 | x16 |[K:C][M:4/4] E8 | D6 CD | B,4 B,4 | z2 CD E4 | D2 DE F4 | E2 ^F2 G4- | G2 F2 E3 E | %10
w: |||O|Je- su, o|Je- su|cor- dis me-|i, cor- dis me-|i, the- sau-||
 E8 | z4 F4- | F4 E2 DE | ^C4 C4 | z4 z2 CD | E4 D2 G2 | A6 GF | E6 E2 | D2 A,2 D3 D | D4 z2 G2- | %20
w: rus,|o|* Je- su, o|Je- su,|cor- dis|me- i, the-|sau- * *||rus, et u- ni-|cum gau-|
 GF ED CD E2 | D3 D C4 | z4 C4- | C2 C2 D4 | D2 D4 ^C2 | D4 D4 | z4 F4- | F2 ED E3 E | D2 F4 ED | %29
w: |* di- um,|lu-|* men ve-|rum, lu- men|ve- rum|et|* in- de- fi- ci-|ens, et in- de-|
 G4 E4 | E8 | z4 E4- | E2 C2 A,4 | B,4 z2 E2- | E2 DC D4- | D4 ^C4 |[M:3/1] D16 D8 | D12 E4 C8 | %38
w: fi- ci-|ens,|lu-|* men ve-|rum, et|* in- de- fi-|* ci-|ens, in-|e- bri- a|
 D16 D8 | D12 D4 ^C8 |[M:4/4] D8 | z4 D4- | D2 D2 G,4 | A,8 | B,8- | B,8 | z2 C2 D2 F2- | %47
w: nos, in-|e- bri- a|nos|san-|* gui- ne|tu-|o,||et glo- ri-|
 FF D2 E2 E2 | ^F2 G3 G F2 | G2 D2 G3 F | E2 A3 G FE | DE/F/ G3 F ED | CD/E/ F3 E DC | %53
w: * fi- ca nos, et|glo- ri- fi- ca|nos in cor- po-|re san- * * *|||
 B,2 A,2 B,4 | A,4 z2 C2 | D2 E3 E ^F2 | G4 z2 G2 | F2 F3 F D2 | E8 | z8 | z8 | z8 | z2 A,2 D3 C | %63
w: * cto tu-|o, et|glo- ri- fi- ca|nos, et|glo- ri- fi- ca|nos||||in cor- po-|
 B,2 G3 F ED | CD/E/ F2 F2 D2 | G3 F E2 A2- | AG FE FE DC | B,C/D/ EC E4 | E16 |] %69
w: re san- * * *|* * * * cto, in|cor- po- re san-||* * * * cto tu-|o.|
V:3
 x8 | z8 | x16 |[K:C][M:4/4] z4 C4- | C4 B,2 A,B, | ^G,4 G,4 | z2 A,B, C4 | B,2 B,C D4 | C4 z2 D2 | %9
w: |||O|* Je- su, o|Je- su|cor- dis me-|i, cor- dis me-|i, the-|
 E2 DC B,3 B, | ^C8 | z4 D4 | _B,8 | A,8 | z4 z2 A,B, | C4 B,4 | z2 A,2 D4- | D2 ^CB, C3 C | %18
w: sau- * * * *|rus,|o|Je-|su,|cor- dis|me- i,|the- sau-||
 D4 z2 A,2 | B,3 B, B,2 E2- | ED CB, A,B, C2- | C2 B,2 C4 | z4 E4- | E2 C2 B,4 | B,2 B,4 G,2 | %25
w: rus, et|u- ni- cum gau-||* di- um,|lu-|* men ve-|rum, lu- men|
 A,4 A,4 | C6 B,A, | ^C2 D4 C2 | D8 | C6 B,A, | B,6 B,2 | A,8 | C6 A,2 | ^G,4 G,4 | A,6 G,F, | %35
w: ve- rum|et in- de-|fi- * ci-|ens,|et in- de-|fi- ci-|ens,|lu- men|ve- rum,|et in- de-|
 A,6 A,2 |[M:3/1] D,16 A,8 | B,12 G,4 A,8 | B,16 B,8 | A,12 B,4 G,8 |[M:4/4] A,4 D4- | D2 D2 B,4- | %42
w: fi- ci-|ens, in-|e- bri- a|nos, in-|e- bri- a|nos san-|* gui- ne|
 B,4 C4- | C4 B,2 A,2 | ^G,4 A,4- | A,4 G,4 | z2 A,2 B,2 C2- | CC B,2 C2 B,2 | D2 E3 E D2 | D8 | %50
w: * tu-|||* o,|et glo- ri-|* fi- ca nos, et|glo- ri- fi- ca|nos|
 z2 A,2 D3 C | B,2 E3 D CB, | A,B,/C/ D3 C B,A, | ^G,G, A,4 G,2 | A,4 z2 E,2 | G,2 G,3 G, D2 | %56
w: in cor- po-|re san- * * *||* cto tu- *|o, et|glo- ri- fi- ca|
 D4 z2 E2 | D2 C3 C B,2 | C2 G,2 C3 B, | A,2 D3 C B,A, | G,A,/B,/ C3 B, A,G, | F,D, D4 ^C2 | D8 | %63
w: nos, et|glo- ri- fi- ca|nos in cor- po-|re san- * * *||* cto tu- *|o,|
 z2 B,2 C3 B, | A,2 D3 C B,A, | G,A,/B,/ C3 B, A,G, | F,G, A,B,/C/ D4- | D2 C2 B,4 | A,16 |] %69
w: in cor- po-|re san- * * *|||* cto tu-|o.|
V:4
 x8 | z8 | x16 |[K:C][M:4/4] A,8 | D,8 | E,8 | z4 z2 E,F, | G,4 F,2 F,G, | A,4 G,4 | %9
w: |||O|Je-|su|cor- dis|me- i, cor- dis|me- i,|
 z2 D,2 E,3 E, | A,,8 | D,8 | G,,8 | A,,8 | z2 D,E, F,4 | E,2 E,F, G,4 | F,4 z2 G,2 | A,6 A,2 | %18
w: the- sau- *|rus,|o|Je-|su,|cor- dis me-|i, cor- dis me-|i, the-|sau- *|
 D,4 z2 D,2 | G,3 G, G,4 | z2 C3 B, A,G, | F,2 G,2 C,4 | z4 C,4- | C,2 A,,2 G,,4 | G,,2 G,4 E,2 | %25
w: rus, et|u- ni- cum|gau- * * *|* di- um,|lu-|* men ve-|rum, lu- men|
 D,4 D,4 | A,6 G,F, | A,6 A,2 | D,8 | E,6 D,C, | E,6 E,2 | A,,8 | z2 A,4 F,2 | E,4 E,4 | z8 | z8 | %36
w: ve- rum|et in- de-|fi- ci-|ens,|et in- de-|fi- ci-|ens,|lu- men|ve- rum,|||
[M:3/1] z8 z8 D,8 | B,,12 C,4 A,,8 | G,,16 G,8 | ^F,12 G,4 E,8 |[M:4/4] D,8 | z4 G,4- | %42
w: in-|e- bri- a|nos, in-|e- bri- a|nos|san-|
 G,2 G,2 E,4 | F,8 | E,8- | E,8 | z2 A,2 G,2 F,2- | F,F, G,2 C,2 E,2 | D,2 C,3 C, D,2 | G,,8 | %50
w: * gui- ne|tu-|o,||et glo- ri-|* fi- ca nos, et|glo- ri- fi- ca|nos|
 z4 z2 D,2 | G,3 F, E,2 A,2- | A,G, F,E, D,2 D,2 | E,8 | A,,4 z2 A,,2 | B,,2 C,3 C, D,2 | %56
w: in|cor- po- re san-|* * * * * cto|tu-|o, et|glo- ri- fi- ca|
 G,,4 z2 C,2 | D,2 F,3 F, G,2 | C,4 z2 C,2 | F,3 E, D,2 G,2- | G,F, E,D, C,D,/E,/ F,2- | %61
w: nos, et|glo- ri- fi- ca|nos in|cor- po- re san-||
 F,2 D,2 A,4 | D,4 z2 D,2 | G,3 F, E,2 A,2- | A,G,/F,/ E,D, E,F, G,2- | G,F, E,D, C,4 | D,8 | E,8 | %68
w: * cto tu-|o, in|cor- po- re san-||* * * * cto|tu-||
 A,,16 |] %69
w: o.|

